X:1
T:Title
%%score { 1 | ( 2 3 ) }
L:1/8
Q:1/4=86
M:2/4
K:C
V:1 treble nm="Grand Piano"
V:2 bass 
V:3 bass 
V:1
 [CEG][G,CE] [CEG][CEA] | [CFA]2 [B,FG]2 | [CEG][Ec] [CE][EA] | A2 G2 | E[EG] [Ec][Ge] | %5
w: Adam~Geibel * * *|||||
 [^Ge]d [EAc]2 | [DGB].[DGA] [^Fc][CDF] | [B,DG]4 | dG ed | [Ec]B/A/ [EG]2 | [Gd][GB] [Gc][Gd] | %11
w: ||||||
 [Ge]4 | [Ge][Ge] [Gd][Gc] | dc BA | Gc c/B/A/B/ | [Ec]4 |] %16
w: |||||
V:2
 C,C, C,C, | D,2 G,,2 | C,[C,G,] [C,G,][C,C] | [G,B,F]4 | [C,C][C,C] [C,G,][C,C] | .B,2 z2 | %6
 .D,>[K:treble]B[K:bass] [D,A,]D, | G,,4 | [G,B,F][G,B,F] [G,B,G][G,B,F] | C[^F,_E] [C,G,]2 | %10
 [G,B,][F,D] [E,C][D,B,] | [C,C]4 | [C,C][C,C] [D,B,][E,_B,] | [F,A,F]2 [^F,CD]2 | %14
 [G,CE][G,CE] [G,DF][G,DF] | [C,C]4 |] %16
V:3
 x4 | x4 | x4 | x4 | x4 | E,-[E,E] A,2 | z D,[K:treble][K:bass] z2 | x4 | x4 | C,2 z2 | x4 | x4 | %12
 x4 | x4 | x4 | x4 |] %16

